X:113
T:Ty fy Nhad - My Fathers House
M:3/4
L:1/4
Q:70
C:Trad.
S:Davidsons Musical Miracles 1859
R:Slow air
K:G
D |G/A/ B A | G/F/ E>D | E/G/ A>B | A2 D | G/A/ B A | G/E/ A>B | A/E/ F E|
D- D>c | B/c/ d B | A/B/ c d | c/B/ A>F | E2 c | B/c/ d B | A/B/ c B|
d/G/ F E | D2 G | E/F/ G A | B/c/ B>A | G/E/ F A | G2 ||
